X:2690
L:1/8
M:3/4
K:C
 GG |"C" Ge dc BA | Gc BA G"_=" E |"G7""_f" FG"_h" B"_f"F G"_h"B |"_a" A3 G G2 | FG BF GB | 
 A3 G G2 |"C" EG cE Gc | A3 G G2 | Ge dc BA | Gc BA G"_=" E |"G7" FG BF GB | A3 G G2 | FG BF GB | 
 g4"_=" B2 |"C" c2 Bc ed | c2 z2 d"_=" c ||"G7""_h" B2"_a" a3 g |"_f" .f2 .e2"_d" .d2 | 
"C" c3 G E2 | EG cE G"_=" c |"G7""_h" B3"_a" A"_f" F2 | FG"_h" B"_f"F G"_h =" B |"C" c3 G E2 | 
 z2 d2"_=" c2 |"G7""_h" B2"_a" a3 g |"_f" .f2 .e2"_d" .d2 |"C" c3 G E2 | EG cE G"_=" c | 
"G7""_h" B3"_a" A"_f" F2 | AG ^FG A"_=" B |"C" c2 G2 e2 | c2 z2 Ac |:[K:F]"F" .a2 .g2 .f2 | 
 .e2 .d2 .c2 |"C7" ce ec ec |"_b" B3 f ed | ce ec ec |"_b" B3 f ed |"F" cf fc fc | A4 Ac | 
 .a2 .g2 .f2 | .e2 .d2 .c2 |"C7" ce ec ec |"_b" B3 f ed | ce !>!e3 d | cd c"_b"B AG |"F" F2 A2 c2 | 
 f2 z2 z2 :|

